assets/ai/ai-acmdl-square.svg

<svg xmlns="http://www.w3.org/2000/svg" width="100%" height="100%" viewBox="-75.52 -43.52 599.04 599.04"><path d="M 48 32 C 21.5 32 0 53.5 0 80 L 0 432 C 0 458.5 21.5 480 48 480 L 400 480 C 426.5 480 448 458.5 448 432 L 448 80 C 448 53.5 426.5 32 400 32 L 48 32 z M 223.13086 96 L 224.20312 96 C 235.01959 106.93611 245.82486 117.88213 256.69336 128.76758 C 257.11802 129.19302 258.18951 129.28638 258.84961 129.11328 C 268.31277 126.62388 277.75637 124.05344 287.20898 121.52539 C 292.5814 120.08784 297.96224 118.69235 303.40234 117.26172 C 303.70689 118.0084 303.96349 118.48051 304.09766 118.98438 C 307.85838 132.9925 311.6333 146.99525 315.31836 161.02344 C 315.75211 162.67026 316.34988 163.52088 318.15039 163.96094 C 324.64209 165.5491 331.0693 167.39847 337.51953 169.1543 C 345.69201 171.37719 353.86399 173.606 362.03906 175.83398 C 361.98429 176.31379 361.98652 176.58129 361.91992 176.83203 C 358.04345 191.36408 354.13796 205.88542 350.34375 220.4375 C 350.11886 221.30303 350.47587 222.69794 351.08789 223.3418 C 355.0375 227.49223 359.12785 231.50816 363.18555 235.55469 C 369.96581 242.31595 376.75542 249.06606 384 256.27539 C 383.00839 257.00857 382.12814 257.50587 381.4375 258.19531 C 371.55512 268.06608 361.74919 278.01532 351.78711 287.80078 C 350.13399 289.42465 349.93525 290.76041 350.51562 292.875 C 354.45358 307.19631 358.25117 321.55855 362.12109 336.00781 C 361.69535 336.16381 361.38795 336.30328 361.06445 336.39258 C 346.67063 340.32719 332.28877 344.3079 317.86328 348.12109 C 316.22363 348.55604 315.74999 349.33974 315.38281 350.73828 C 313.09761 359.43439 310.76207 368.11622 308.42773 376.79883 C 306.8401 382.70293 305.22671 388.60298 303.58594 394.64453 C 302.60126 394.44291 301.82551 394.32366 301.07227 394.125 C 287.16422 390.45727 273.24655 386.82868 259.37305 383.03516 C 257.78543 382.60203 256.93186 382.88679 255.89258 383.9375 C 249.40781 390.49498 242.8667 396.99595 236.375 403.54688 C 232.28966 407.66963 228.25791 411.84663 224.20312 416 L 223.12891 416 C 212.39357 405.21301 201.67535 394.40949 190.87891 383.68555 C 190.3014 383.11314 188.96436 382.83606 188.14453 383.05078 C 173.31841 386.92017 158.51684 390.88687 143.44727 394.9043 C 141.55107 387.77625 139.66056 380.67625 137.77344 373.57227 C 135.76662 366.01513 133.75801 358.459 131.76172 350.90039 C 131.35855 349.38044 130.73056 348.50192 128.91406 348.03125 C 115.08715 344.45393 101.32202 340.63264 87.513672 336.97656 C 85.459002 336.43406 84.886376 335.76563 85.503906 333.51758 C 89.268656 319.80152 92.780354 306.01627 96.558594 292.30273 C 97.051274 290.51189 96.728612 289.55578 95.539062 288.37305 C 85.451822 278.32872 75.458937 268.18779 65.310547 258.20508 C 63.483547 256.40911 63.628518 255.46504 65.361328 253.75586 C 75.496618 243.76001 85.506781 233.63755 95.582031 223.58008 C 96.661291 222.50273 97.101444 221.63737 96.621094 219.89062 C 92.853794 206.16907 89.380148 192.36697 85.585938 178.65234 C 84.925837 176.26833 85.389893 175.59214 87.601562 175.01758 C 101.09842 171.50296 114.55937 167.84131 128.05078 164.30664 C 130.18931 163.7452 131.34342 162.80346 131.93945 160.47266 C 135.58994 146.19 139.45019 131.95981 143.24805 117.71289 C 143.29063 117.55173 143.43059 117.41614 143.60742 117.13867 C 153.02004 119.6361 162.4791 122.12958 171.92773 124.66016 C 177.42495 126.13199 182.89411 127.7115 188.40625 129.125 C 189.10743 129.30509 190.24965 129.04085 190.75 128.54102 C 201.58141 117.73141 212.35006 106.85992 223.13086 96 z M 200.76367 207.31836 C 185.37569 207.34266 169.98805 207.32812 154.60156 207.32812 L 151.86914 207.32812 L 151.86914 300.18164 C 152.3149 300.26552 152.56797 300.35352 152.82227 300.35352 C 169.37212 300.36302 185.92119 300.41555 202.4707 300.28906 C 203.99827 300.27702 205.83742 299.48452 206.98438 298.44727 C 211.22693 294.61255 215.29025 290.57637 219.31445 286.50977 C 221.3544 284.44843 222.59175 281.91152 222.59375 278.90625 C 222.59635 262.32452 222.61692 245.74347 222.57422 229.16211 C 222.5662 226.2381 221.55859 223.67017 219.37891 221.55664 C 215.58762 217.87946 211.87132 214.12233 208.17969 210.34375 C 206.1212 208.23717 203.67947 207.31236 200.76367 207.31836 z M 250.07422 207.48828 L 250.07422 300.2207 L 312.07031 300.2207 L 312.07031 284.63281 L 266.53516 284.63281 L 266.53516 207.48828 L 250.07422 207.48828 z M 195.68164 222.88281 C 197.83073 222.85476 199.22936 223.78911 200.85156 225.03711 C 205.0781 228.29031 206.242 232.31792 206.07812 237.58984 C 205.69101 250.02185 206.01533 262.47256 205.87305 274.91406 C 205.85558 276.40047 204.95645 278.02742 204.08203 279.33008 C 200.96389 283.9687 196.5839 285.26242 191.0332 284.89453 C 183.654 284.40521 176.21592 284.77344 168.49609 284.77344 L 168.49609 222.92383 L 171.29102 222.92383 C 179.42057 222.92383 187.55316 222.98965 195.68164 222.88281 z"/></svg>

<svg xmlns="http://www.w3.org/2000/svg" width="100%" height="100%" viewBox="-75.52 -43.52 599.04 599.04"><path d="M48 32C21.5 32 0 53.5 0 80v352c0 26.5 21.5 48 48 48h352c26.5 0 48-21.5 48-48V80c0-26.5-21.5-48-48-48H48zm175.13 64h1.073c10.817 10.936 21.622 21.882 32.49 32.768.425.425 1.497.518 2.157.345 9.463-2.49 18.906-5.06 28.359-7.588 5.372-1.437 10.753-2.833 16.193-4.263.305.746.561 1.219.696 1.722 3.76 14.009 7.535 28.011 11.22 42.04.434 1.646 1.032 2.497 2.832 2.937 6.492 1.588 12.92 3.437 19.37 5.193 8.172 2.223 16.344 4.452 24.52 6.68-.056.48-.053.747-.12.998-3.877 14.532-7.782 29.053-11.576 43.606-.225.865.132 2.26.744 2.904 3.95 4.15 8.04 8.166 12.098 12.213 6.78 6.76 13.57 13.511 20.814 20.72-.992.734-1.872 1.23-2.563 1.92-9.882 9.871-19.688 19.82-29.65 29.606-1.653 1.624-1.852 2.96-1.271 5.074 3.938 14.321 7.735 28.684 11.605 43.133-.426.156-.733.295-1.057.385-14.393 3.934-28.775 7.915-43.2 11.728-1.64.435-2.114 1.219-2.481 2.617-2.285 8.696-4.62 17.378-6.955 26.06-1.588 5.905-3.201 11.805-4.842 17.847-.985-.202-1.76-.321-2.514-.52-13.908-3.668-27.825-7.296-41.699-11.09-1.588-.433-2.441-.148-3.48.902-6.485 6.558-13.026 13.059-19.518 19.61-4.085 4.123-8.117 8.3-12.172 12.453h-1.074c-10.735-10.787-21.454-21.59-32.25-32.314-.578-.573-1.915-.85-2.734-.635-14.827 3.87-29.628 7.836-44.698 11.853-1.896-7.128-3.786-14.228-5.674-21.332-2.006-7.557-4.015-15.113-6.011-22.672-.403-1.52-1.031-2.398-2.848-2.869-13.827-3.577-27.592-7.398-41.4-11.054-2.055-.543-2.628-1.211-2.01-3.46 3.765-13.715 7.276-27.5 11.055-41.214.492-1.791.17-2.747-1.02-3.93-10.087-10.044-20.08-20.185-30.228-30.168-1.827-1.796-1.682-2.74.05-4.45 10.136-9.995 20.146-20.117 30.221-30.175 1.08-1.077 1.52-1.943 1.04-3.69-3.768-13.72-7.242-27.523-11.036-41.238-.66-2.384-.196-3.06 2.016-3.634 13.496-3.515 26.957-7.177 40.449-10.711 2.138-.562 3.292-1.504 3.888-3.834 3.65-14.283 7.511-28.513 11.31-42.76.042-.161.182-.297.358-.574 9.413 2.497 18.872 4.99 28.32 7.521 5.498 1.472 10.967 3.052 16.48 4.465.7.18 1.843-.084 2.343-.584 10.831-10.81 21.6-21.681 32.38-32.541zm-22.366 111.318c-15.388.025-30.776.01-46.162.01h-2.733v92.854c.446.084.699.172.953.172 16.55.009 33.1.062 49.649-.065 1.527-.012 3.366-.804 4.513-1.842 4.243-3.834 8.306-7.87 12.33-11.937 2.04-2.062 3.278-4.598 3.28-7.604.002-16.581.023-33.163-.02-49.744-.008-2.924-1.015-5.492-3.195-7.605-3.791-3.678-7.508-7.435-11.2-11.213-2.058-2.107-4.5-3.032-7.415-3.026zm49.31.17v92.733h61.996v-15.588h-45.535v-77.145h-16.46zm-54.392 15.395c2.149-.028 3.547.906 5.17 2.154 4.226 3.253 5.39 7.28 5.226 12.553-.387 12.432-.063 24.883-.205 37.324-.017 1.486-.917 3.113-1.791 4.416-3.118 4.639-7.498 5.932-13.049 5.565-7.379-.49-14.817-.122-22.537-.122v-61.85h2.795c8.13 0 16.262.067 24.39-.04z"/></svg>
